X: 78
T: The Mist Covered Mountain
M: 6/8
C:Junior Crehan
L: 1/8
R: jig
K:Ador
G|"Am"EAA ABd|e2 A AGE|"G"~G3 GAB|dBA GED|"Am"EAA ABd|e2A AGE|"C"efg "G"dBG|BAG "Am"A2:|
a|"Am"age a2b|"Em"age edB|"G"AGE G2A|BAB GED|"Am"age a2b|"Em"age edB|"G"AGE G2A|BAG "Am"A3|
"Am"age a2b|"Em"age edB|"G"AGE G2A|BAB GED|"C"EDE G2A|"G"BAG Bcd|"C"efg "G"dBG|BAG "Am"A2|]


